!!!!SEGMENT: pl-wn--mus-ii-20-757-cim_sowinski-wojciech--die-letzten-zehn-vom-vierten-regiment.krn
!!!cenid: 18xx:3584
!!!COM: Sowiński, Wojciech
!!!COM-rismID: pe30008543
!!!CDT: ~1803-1880/03/05
!!!CNT:
!!!OTL: Die letzten Zehn vom vierten Regiment
!!!PDT: 1831
!!!AGN:
!!!SMS-siglum: PL-Wn
!!!SMS-shelfmark: Mus.II.20.757 Cim.
!!!SMS-shelfwork: W
!!!SMS-variant:
!!!SMS-altvar:
!!!NIFC-rismSourceID:
!!!NIFC-islandoraID:
!!!URL-pdf-islandora:
!!!URL-scan: https://polona.pl/item/die-letzten-zehn-vom-vierten-regiment-von-julius-moser,OTQ2NDUwNDE/0 @EN{Scan on Polona} @PL{Skany w portalu Polona}
!!!ONB-nifc:
!!!AIN: 2 piano 1 vox
!!!key: C
!!!OMD: Tempo di marcia.
**kern	**kern	**dynam	**kern	**text	**text	**text	**text	**text	**dynam
*part3	*part2	*part2	*part1	*part1	*part1	*part1	*part1	*part1	*part1
*group2	*group2	*	*group1	*group1	*group1	*group1	*group1	*group1	*
*staff3	*staff2	*	*staff1	*staff1	*staff1	*staff1	*staff1	*staff1	*
*I"Pianoforte.	*I"Pianoforte.	*	*I"Singstimme.	*	*	*	*	*	*
*	*I'	*	*I'	*	*	*	*	*	*
*Ipiano	*Ipiano	*	*Ivox	*	*	*	*	*	*
*ICklav	*ICklav	*	*ICvox	*	*	*	*	*	*
*clefF4	*clefG2	*	*clefG2	*	*	*	*	*	*
*k[]	*k[]	*	*k[]	*	*	*	*	*	*
*C:	*C:	*	*C:	*	*	*	*	*	*
*M4/4	*M4/4	*	*M4/4	*	*	*	*	*	*
*met(c)	*met(c)	*	*met(c)	*	*	*	*	*	*
*>[A,B,B1,B,B1,B,B1,B,B2,C,C1,B,B2,C,C2]	*>[A,B,B1,B,B1,B,B1,B,B2,C,C1,B,B2,C,C2]	*	*	*	*	*	*	*	*
=1	=1	=1	=1	=1	=1	=1	=1	=1	=1
*>A	*>A	*>A	*>A	*>A	*>A	*>A	*>A	*>A	*>A
!	!	!LO:DY:rj	!	!	!	!	!	!	!
4C 4CC\	4c 4E</	f	1r	.	.	.	.	.	.
4.G 4.C\	4.cc 4.e 4.c/	.	.	.	.	.	.	.	.
8CL 8CC\	8cL 8E</	.	.	.	.	.	.	.	.
8.BB 8.BBB\	8.c 8.E</	.	.	.	.	.	.	.	.
16BBJk 16BBB\	16cJk 16E</	.	.	.	.	.	.	.	.
=2	=2	=2	=2	=2	=2	=2	=2	=2	=2
4AA 4AAA\	4c 4A< 4E</	.	1r	.	.	.	.	.	.
4.A 4.AA\	4.cc 4.e 4.c/	.	.	.	.	.	.	.	.
*	*clefF4	*	*	*	*	*	*	*	*
8AAL 8AAA/	8cL 8E\	.	.	.	.	.	.	.	.
8.GG 8.GGG/	8.c 8.E\	.	.	.	.	.	.	.	.
16GGJk 16GGG/	16cJk 16E\	.	.	.	.	.	.	.	.
=3	=3	=3	=3	=3	=3	=3	=3	=3	=3
8FF#X 8FFF#X/	8c 8E-X 8C\	.	1r	.	.	.	.	.	.
8r	8r	.	.	.	.	.	.	.	.
*	*clefG2	*	*	*	*	*	*	*	*
!LO:SIC:v:n=1:s=2F#	!	!LO:DY:rj	!	!	!	!	!	!	!
2F 2FF#/	(2e-X 2c/	p	.	.	.	.	.	.	.
!LO:SIC:v:n=1:s=8F#	!	!	!	!	!	!	!	!	!
8F 8FF#/	8c 8A/)	.	.	.	.	.	.	.	.
8r	8r	.	.	.	.	.	.	.	.
=4	=4	=4	=4	=4	=4	=4	=4	=4	=4
2G 2GG\	2B/	.	2ryy	.	.	.	.	.	.
8r	8r	.	8ryy	.	.	.	.	.	.
=||:	=||:	=||:	=||:	=||:	=||:	=||:	=||:	=||:	=||:
*>B	*>B	*>B	*>B	*>B	*>B	*>B	*>B	*>B	*>B
!!LO:TX:t=[segno]:problem:znak segno na kresce taktowej
*	*	*	*	*v:1	*v:2	*v:3	*v:4	*v:6	*
8r	8r	.	8g/	In	Und	Drang	Und	A-	.
4r	4r	.	8a/	War-	als	auch	ob	-de,	.
.	.	.	8b\	-schau	mir	der	viel	ihr	.
=5	=5	=5	=5	=5	=5	=5	=5	=5	=5
4C 4CC/	(4e 4c/	p	4.cc\	schwu-	dort	Feind	wa-	Brü-	.
4r	4G/)	.	.	.	.	.	.	.	.
.	.	.	16b\LL	-ren	bei	mit	-ckre	-der,	.
.	.	.	16a\JJ	.	.	.	.	.	.
4C 4CC/	(4e 4c/	.	8.g/	Tau-	Pra-	Tau-	-Män-	die,	.
.	.	.	16g/	-send	-ga	-send	-ner-	zu	.
4r	4A/)	.	8.a/	auf	blu-	Feu-	-her-	Tod	.
.	.	.	16g/	den	-tig	-er-	-zen	ge-	.
!!LO:LB:g=original
=6	=6	=6	=6	=6	=6	=6	=6	=6	=6
4C 4CC/	(4e 4c/	.	4e/	Kni-	ran-	-schlün-	bra-	-trof-	.
4r	4G/)	.	4c/	-en,	-gen,	-den,	-chen,	-fen,	.
4C 4CC/	(4e 4c/	.	8r	.	.	.	.	.	.
.	.	.	8g/	kein	hat	bei	doch	an	.
4r	4G/)	.	8b\	Schuss	doch	Os-	grif-	uns’-	.
.	.	.	8cc\	im	kein	-tro-	-fen	-rer	.
=7	=7	=7	=7	=7	=7	=7	=7	=7	=7
4GG/	(4f 4B/	.	4.dd\	heil’-	Kam’-	-len-	wir	Sei-	.
4ryy	4G/)	.	.	.	.	.	.	.	.
.	.	.	8f/	-gen	-rad	-ka	mit	-te	.
4GG/	(4f 4B/	.	8.f/	Kam-	ei-	grim-	Ba-	dort	.
.	.	.	16ee\	-pfe	-nen	-mig	-jo-	wir	.
4r	4G/)	.	8.dd\	seÿ	schuss	auf	-net-	stür-	.
.	.	.	16b\	ge-	ge-	uns	-ten	-zen	.
=8	=8	=8	=8	=8	=8	=8	=8	=8	=8
4GG/	(4f 4B/	.	(4a/	-than;	-than,	an,	an,	sahn’	.
4r	4G/)	.	4g/)	.	.	.	.	.	.
4GG/	4f 4B 4G/	.	8r	.	.	.	.	.	.
.	.	.	8g/	Tam-	und	doch	und	wir	.
4r	4r	.	8cc\	-bour	als	wu-	ob	le-	.
.	.	.	8dd\	schlag’	wir	-sten	wir	-ben	.
=9	=9	=9	=9	=9	=9	=9	=9	=9	=9
*	*	*	*^	*	*	*	*	*	*
4C/	4e 4c 4G/	.	4ee\	2ryy	an!	dort	wir	auch	noch	.
4r	4r	.	8b\L	.	Zum	den	sein	den	die	.
.	.	.	8cc\J	.	.	.	.	.	.	.
4C/	4f 4c 4A/	.	8.dd/L	8.dd\	Schlacht-	Blut-	tü-	Schick-	Wun-	.
.	.	.	16cc/Jk	16cc\	-feld	.	-ckisch	-sal	-den	.
4F#X 4C\	4e-<X 4A</	>]	8.b/L	8.b\	lass	-feind	Herz	un-	ste-	.
.	.	.	16a/Jk	16a\	uns	.	zu	-ter-	-hen	.
*	*	*	*v	*v	*	*	*	*	*	*
!!LO:LB:g=original
=10	=10	=10	=10	=10	=10	=10	=10	=10	=10
[4C/	[4e [4c [4G/	.	4f#X/	zie-	zwan-	fin-	-la-	of-	.
4C/]	4e] 4c] 4G/]	.	4g/	-hen,	-gen,	-den,	-gen,	-fen,	.
4BB/	4r	.	4r	.	.	.	.	.	.
4GG/	4f 4B 4G/	.	4g/	wir	mit	mit	doch	und	.
=11	=11	=11	=11	=11	=11	=11	=11	=11	=11
2C/	4e 4c 4G/	.	8.ee\	grei-	Ba-	Ba-	hat-	um	.
.	.	.	16cc\	-fen	-jo-	-jo-	-te	die	.
.	4e 4c 4G/	.	8.b\	nur	-net-	-net-	Kei-	Hei-	.
.	.	.	16cc\	mit	-ten	-ten	-ner	-math	.
4C/	4f 4c 4A/	.	8.dd\	Ba-	ging	bra-	ei-	e-	.
.	.	.	16cc\	-jo-	es	-chen	-nen	-wig	.
4F#X 4C\	4e-<X 4A<^>/	.	8.b\	-net-	drauf	wir	Schuss	ist’s	.
.	.	.	16a/	-ten	und	uns	ge-	ge-	.
=12	=12	=12	=12	=12	=12	=12	=12	=12	=12
[4C/	[4e [4c [4G/	.	(4a/	an,	dran,	Bahn,	-than,	-than!	.
4C/]	4e] 4c] 4G/]	.	8g/)	.	.	.	.	.	.
.	.	.	8r	.	.	.	.	.	.
4BB/	4r	.	4r	.	.	.	.	.	.
4GG/	4f 4B 4G/	.	4r	.	.	.	.	.	.
=13	=13	=13	=13	=13	=13	=13	=13	=13	=13
4C\	4e 4c 4G/	.	4ee\	und	fragt	fragt	wo	Herr	.
!	!LO:S:s=1:note:problem=note-level slur	!	!	!	!	!	!	!	!
!	!LO:S:s=2:note:problem=note-level slur	!	!	!	!	!	!	!	!
(<[4E 4EE^\	(<4d (4G#X/	.	8.b\	e-	Pra-	Os-	blu-	Gott	.
.	.	.	16cc\	-wig	-ga,	-tro-	-tig	im	.
!	!LO:S:s=1:note:problem=note-level slur	!	!	!	!	!	!	!	!
!	!LO:S:s=2:note:problem=note-level slur	!	!	!	!	!	!	!	!
4E] 4AA/)	4c) 4A/)	.	8a/	kennt	das	-len-	roth	Him-	.
.	.	.	8ee\	da	die	-ka	zum	-mel,	.
!	!LO:S:s=1:note:problem=note-level slur	!	!	!	!	!	!	!	!
!	!LO:S:s=2:note:problem=note-level slur	!	!	!	!	!	!	!	!
([4E 4EE/	(<4d (4G#^/	.	8b\	Va-	treu-	das	Meer	schenk’	.
.	.	.	8cc\	-ter-	-en	uns	die	ein	.
!!LO:PB:g=original
=14	=14	=14	=14	=14	=14	=14	=14	=14	=14
!	!LO:S:s=1:note:problem=note-level slur	!	!	!	!	!	!	!	!
!	!LO:S:s=2:note:problem=note-level slur	!	!	!	!	!	!	!	!
2E] 2AA\)	2c) 2A</)	.	4.g#X/	-land	Po-	blu-	Weich-	gnä-	.
.	.	.	8a/	und	-len	-tend	-sel	-dig’	.
2r	2r	.	4ee\	nennt,	kennt,	nennt,	rennt,	End’,	.
!	!	!	!	!	!	!	!	!	!LO:DY:b
.	.	.	4ee-X\	mit	wir	wir	dort	uns	f
=15	=15	=15	=15	=15	=15	=15	=15	=15	=15
2D 2DD/	4g 4d 4B/	f	8.dd\	stil-	wa-	wa-	blu-	letz-	.
.	.	.	16dd\	-lem	-ren	-ren	-te-	-ten	.
.	4g#X 4d 4B/	.	8.dd\	Schmerz	dort	dort	-te	Zehn	.
.	.	.	16dd\	sein	das	das	das	vom	.
4D 4DD/	4a 4d 4c/	.	8.ee\	vier-	vier-	vier-	vier-	vier-	.
.	.	.	16dd\	-tes	-te	-te	-te	-ten	.
4D 4DD/	4f#X 4d 4c/	.	8.ee\	Re-	Re-	Re-	Re-	Re-	.
.	.	.	16dd\	-gi-	-gi-	-gi-	-gi-	-gi-	.
=16	=16	=16	=16	=16	=16	=16	=16	=16	=16
!!LO:TX:a:B:t=1.2.3.
*>B1	*>B1	*>B1	*>B1	*>B1	*>B1	*>B1	*>B1	*>B1	*>B1
4D 4GG/	4g 4d 4B/	f	4g/	-ment.	-ment.	-ment.	.	.	.
!	!LO:TX:a:i:t=ten	!	!	!	!	!	!	!	!
4.G 4.GG/	4.g 4.d 4.B/	.	4r	.	.	.	.	.	.
.	.	.	2r	.	.	.	.	.	.
8e-X\L	8ccL 8g\	.	.	.	.	.	.	.	.
8d\	8dd 8g\	.	.	.	.	.	.	.	.
8c\J	8ee-XJ 8g\	.	.	.	.	.	.	.	.
=17	=17	=17	=17	=17	=17	=17	=17	=17	=17
8B 8G\	8dd 8g\	.	1r	.	.	.	.	.	.
8r	8r	.	.	.	.	.	.	.	.
!	!LO:TX:a:i:t=ten	!	!	!	!	!	!	!	!
4.d 4.G\	4.gg 4.b 4.g^<\	.	.	.	.	.	.	.	.
8E-X\L	8cL 8G/	.	.	.	.	.	.	.	.
8D\	8d 8G/	.	.	.	.	.	.	.	.
8C\J	8e-XJ 8G/	.	.	.	.	.	.	.	.
=18	=18	=18	=18	=18	=18	=18	=18	=18	=18
8BB 8GG/	8d 8G/	.	1r	.	.	.	.	.	.
8r	8r	.	.	.	.	.	.	.	.
!	!LO:TX:a:i:t=ten	!	!	!	!	!	!	!	!
4GG 4GGG/	4g 4B 4G/	.	.	.	.	.	.	.	.
8r	8r	.	.	.	.	.	.	.	.
4ryy	8g/L	.	.	.	.	.	.	.	.
.	8a 8f#X/	.	.	.	.	.	.	.	.
8fn>\	8bJ 8g/	.	.	.	.	.	.	.	.
!!LO:LB:g=original
=19	=19	=19	=19	=19	=19	=19	=19	=19	=19
*	*^	*	*	*	*	*	*	*	*
!	!LO:TX:b:i:t=ritard.	!	!LO:HP:a	!	!	!	!	!	!	!
8g>L 8e>\	8cc/L	2.ryy	>	1r	.	.	.	.	.	.
8b->X 8g> 8e>\	8cc#X/	.	.	.	.	.	.	.	.	.
8a> 8f>\	8dd/	.	.	.	.	.	.	.	.	.
8cc>J 8a> 8f#>X\	8ee-X/J	.	]	.	.	.	.	.	.	.
4cc> 4g>\	4een/	.	p	.	.	.	.	.	.	.
4G\	(8ee/L	4b 4f\	.	.	.	.	.	.	.	.
!	!LO:TX:b:i:t=3mal Da Capo.	!	!	!	!	!	!	!	!	!
.	8dd/J)	.	.	.	.	.	.	.	.	.
=20	=20	=20	=20	=20	=20	=20	=20	=20	=20	=20
4c\	2dd 2b 2g^/	2f\	.	4r	.	.	.	.	.	.
4G\	.	.	.	8r	.	.	.	.	.	.
.	.	.	.	8ryy	.	.	.	.	.	.
8C/	8cc 8g 8e/	8ryy	.	8ryy	.	.	.	.	.	.
*	*v	*v	*	*	*	*	*	*	*	*
=21:|!	=21:|!	=21:|!	=21:|!	=21:|!	=21:|!	=21:|!	=21:|!	=21:|!	=21:|!
!!LO:TX:a:B:t=4.6.
*>B2	*>B2	*>B2	*>B2	*>B2	*>B2	*>B2	*>B2	*>B2	*>B2
4D 4GG/	4g 4d 4B/	f	4g/	.	.	.	-ment.	-ment.	.
4.G 4.GG/	4.g 4.d 4.B/	.	4r	.	.	.	.	.	.
.	.	.	2r	.	.	.	.	.	.
8e-X\L	8ccL 8g\	.	.	.	.	.	.	.	.
8d\	8dd 8g\	.	.	.	.	.	.	.	.
8c\J	8ee-XJ 8g\	.	.	.	.	.	.	.	.
=22	=22	=22	=22	=22	=22	=22	=22	=22	=22
8B 8G\	8dd 8g\	.	1r	.	.	.	.	.	.
8r	8r	.	.	.	.	.	.	.	.
!	!LO:TX:a:i:t=ten	!	!	!	!	!	!	!	!
4.d 4.G\	4.gg 4.b 4.g^<\	.	.	.	.	.	.	.	.
8E-X\L	8cL 8G/	.	.	.	.	.	.	.	.
8D\	8d 8G/	.	.	.	.	.	.	.	.
8C\J	8e-XJ 8G/	.	.	.	.	.	.	.	.
=23	=23	=23	=23	=23	=23	=23	=23	=23	=23
8BB 8GG/	8d 8G/	.	1r	.	.	.	.	.	.
8r	8r	.	.	.	.	.	.	.	.
!LO:N:n=1:vis=4	!LO:TX:a:i:t=ten	!	!	!	!	!	!	!	!
4.GG 4.GGG/	4.g 4.B 4.G^/	.	.	.	.	.	.	.	.
!	!LO:TX:a:i:t=ritard.	!LO:HP:a	!	!	!	!	!	!	!
(8c\L	(8a-XL 8e/	>	.	.	.	.	.	.	.
8B\	8g 8d/	.	.	.	.	.	.	.	.
8A-X\J)	8fJ 8c/)	]]	.	.	.	.	.	.	.
=24	=24	=24	=24	=24	=24	=24	=24	=24	=24
4G\	4e-X 4c/	p	1r	.	.	.	.	.	.
4GG/	4e- 4c/	.	.	.	.	.	.	.	.
4FF/	4d 4c 4A-X/	.	.	.	.	.	.	.	.
4GG\	4d 4B 4G 4F</	.	.	.	.	.	.	.	.
!!LO:LB:g=original
==25	==25	==25	==25	==25	==25	==25	==25	==25	==25
*>C	*>C	*>C	*>C	*>C	*>C	*>C	*>C	*>C	*>C
*k[b-e-a-]	*k[b-e-a-]	*	*k[b-e-a-]	*	*	*	*	*	*
2C 2CC\	2c 2G< 2E-</	.	2r	.	.	.	.	.	.
!	!LO:TX:b:i:t=Un poco piu lento.	!	!LO:TX:a:i:t=Un poco più lento.	!	!	!	!	!	!
2r	4r	.	8r	.	.	.	.	.	.
*	*	*	*	*v:5	*v:7	*	*	*	*
.	.	.	8g/	O	Von	.	.	.	.
!	!LO:N:vis=2	!	!	!	!	!	!	!	!
.	4r	.	8.ee-\	weh	Po-	.	.	.	.
.	.	.	16dd\	das	-len	.	.	.	.
=26	=26	=26	=26	=26	=26	=26	=26	=26	=26
4C 4CC/	4e- 4c 4G/	p	4.cc\	heil’-	her,	.	.	.	.
!	!LO:TX:t=P:problem=diminuendolike accent	!	!	!	!	!	!	!	!
[4C [4CC/	[4e- [4c [4G^/	.	.	.	.	.	.	.	.
.	.	.	8g/	-ge	im	.	.	.	.
4C] 4CC/]	4e-] 4c] 4G/]	.	8.g/	Va-	Ne-	.	.	.	.
.	.	.	16g/	-ter-	-bel-	.	.	.	.
4C 4CC/	4f 4Bn 4A-/	.	8.ee-\	-land	-grau-	.	.	.	.
.	.	.	16dd\	ver-	-en,	.	.	.	.
=27	=27	=27	=27	=27	=27	=27	=27	=27	=27
4C 4CC/	4e- 4c 4G/	.	4dd\	-lo-	rü-	.	.	.	.
!	!LO:TX:t=P:problem=diminuendolike accent	!	!	!	!	!	!	!	!
[4C [4CC/	[4e- [4c [4G^/	.	4cc\	-ren!	-cken	.	.	.	.
4C] 4CC/]	4e-] 4c] 4G/]	.	8r	.	.	.	.	.	.
.	.	.	8e-/	ach	zehn	.	.	.	.
4E- 4AAn\	4c 4F#<X/	.	8.f#X/	fra-	Gre-	.	.	.	.
.	.	.	16f#/	-get	-na-	.	.	.	.
=28	=28	=28	=28	=28	=28	=28	=28	=28	=28
2D 2GG\	2Bn 2G/	.	4.g/	nicht	-die-	.	.	.	.
.	.	.	8bn\	wer	-re	.	.	.	.
!	!LO:TX:t=P:problem=diminuendolike accent	!	!	!	!	!	!	!	!
4E- 4FF#X\	4c 4An<^/	.	8.cc\	uns	in	.	.	.	.
.	.	.	16cc\	diess	das	.	.	.	.
4E- 4FF#\	4c 4A</	.	8.dd\	Leid	Prus-	.	.	.	.
.	.	.	16cc\	ge-	-sen-	.	.	.	.
=29	=29	=29	=29	=29	=29	=29	=29	=29	=29
[2D [2GG\	[2Bn [2G/	.	(4bn\	-than?	-land	.	.	.	.
.	.	.	8g\)	.	.	.	.	.	.
.	.	.	8r	.	.	.	.	.	.
4D] 4GG\]	4B] 4G/]	.	4r	.	.	.	.	.	.
4r	4r	.	8f/L	Weh’	mit	.	.	.	.
.	.	.	8g/J	.	.	.	.	.	.
!!LO:PB:g=original
=30	=30	=30	=30	=30	=30	=30	=30	=30	=30
2.F 2.FF\	2.d 2.A-</	.	4a-/	al-	dum-	.	.	.	.
.	.	.	4d/	-len	-pfem	.	.	.	.
.	.	.	4.f/	die	Schwei-	.	.	.	.
4FF#X\	4c 4An< 4E-</	.	.	.	.	.	.	.	.
.	.	.	8e-/	in	-gen	.	.	.	.
=31	=31	=31	=31	=31	=31	=31	=31	=31	=31
2D 2GG\	2Bn< 2G</	.	8.d/	Po-	greu-	.	.	.	.
.	.	.	16d/	-len-	-num-	.	.	.	.
.	.	.	8.g/	-land	-wölk-	.	.	.	.
.	.	.	16g/	ge-	-ten	.	.	.	.
4AA-\	4B< 4F< 4D</	.	4f/	-bo-	Bli-	.	.	.	.
4GG\	4B< 4F< 4D</	.	8f/	-ren,	-cken,	.	.	.	.
.	.	.	8g/	die	ein	.	.	.	.
=32	=32	=32	=32	=32	=32	=32	=32	=32	=32
2.F 2.FF\	2.Bn< 2.A-</	.	4a-/	Wun-	Wer	.	.	.	.
.	.	.	4a-/	-den	da!	.	.	.	.
.	.	.	4.dd\	fan-	schallt,	.	.	.	.
4FF#X\	4c< 4An< 4E-</	.	.	.	.	.	.	.	.
.	.	.	8cc\	-gen	sie	.	.	.	.
=33	=33	=33	=33	=33	=33	=33	=33	=33	=33
2.D 2.GG\	2.Bn< 2.G</	.	8.cc\	frisch	ste-	.	.	.	.
.	.	.	16bn\	zu	-hen	.	.	.	.
.	.	.	8.b\	blu-	fest	.	.	.	.
.	.	.	16a-/	-ten	ge-	.	.	.	.
.	.	.	4g/	an.	-bannt,	.	.	.	.
4r	4ryy	.	4r	.	.	.	.	.	.
!!LO:LB:g=original
=34	=34	=34	=34	=34	=34	=34	=34	=34	=34
!	!	!LO:DY:rj	!	!	!	!	!	!	!
2C 2CC/	4e- 4c 4G/	p	2g/	Doch	Und	.	.	.	.
.	4e- 4c 4G/	.	.	.	.	.	.	.	.
2C 2CC/	4f 4c 4A-/	.	8.cc\	fragt	ei-	.	.	.	.
.	.	.	16cc\	ihr,	-ner	.	.	.	.
.	4f 4c 4A-/	.	8.b-\	wo	spricht	.	.	.	.
.	.	.	16a-/	die	vom	.	.	.	.
=35	=35	=35	=35	=35	=35	=35	=35	=35	=35
2C 2CC/	4e- 4c 4G/	.	4.a-/	ärg-	Va-	.	.	.	.
.	4c 4G/	.	.	.	.	.	.	.	.
.	.	.	8g/	-ste	-ter-	.	.	.	.
2BB- 2BBB-/	4g 4d 4G/	.	4g/	Wun-	-land	.	.	.	.
.	4g 4d 4G/	.	4g/	-de	ge-	.	.	.	.
=36	=36	=36	=36	=36	=36	=36	=36	=36	=36
2AAn 2AAAn/	2f#X 2c/	.	4f#X/	brennt,	-trennt,	.	.	.	.
.	.	.	4cc\	ach	die	.	.	.	.
2AA-X 2AAA-X/	2f# 2c/	.	4.dd\	Po-	letz-	.	.	.	.
.	.	.	8cc\	-len	-ten	.	.	.	.
=37	=37	=37	=37	=37	=37	=37	=37	=37	=37
*^	*	*	*	*	*	*	*	*	*
8GG 8GGG/	2ryy	8g 8d 8Bn/	.	8bn\	kennt	Zehn	.	.	.	.
8rGG	.	8r	.	8r	.	.	.	.	.	.
!	!	!	!	!	!	!	!	!	!	!LO:HP:b
4.G 4.GG\	.	[2g 2e- [2c/	.	(2ee-\	sein	vom	.	.	.	>
.	8ryy	.	.	.	.	.	.	.	.	.
8G\L	4.G/	.	.	.	.	.	.	.	.	.
8E-\	.	4g] 4e- 4c/]	.	4cc\)	.	.	.	.	.	]
8C\J	.	.	.	.	.	.	.	.	.	.
=38	=38	=38	=38	=38	=38	=38	=38	=38	=38	=38
!	!	!	!	!LO:TX:a:i:t=ritard.	!	!	!	!	!	!
8GG\	8G/	8g 8d 8Bn/	.	8.bn\	vier-	vier-	.	.	.	.
!	!	!LO:TX:b:i:t=ritard.	!	!	!	!	!	!	!	!
8r	8ryy	8r	.	.	.	.	.	.	.	.
.	.	.	.	16b\	-tes	-ten	.	.	.	.
!	!	!	!	!	!	!	!	!	!	!LO:HP:b
4.GG 4.GGG\	2ryy	2.c 2.F#<X 2.E-</	.	2cc\	Re-	Re-	.	.	.	>
8EE-\L	.	.	.	.	.	.	.	.	.	.
8CC\	8cL 8F 8E-/	.	.	4f#X/	-gi-	-gi	.	.	.	]
8AAAn\J	8An/J	.	.	.	.	.	.	.	.	.
*v	*v	*	*	*	*	*	*	*	*	*
!!LO:LB:g=original
=39	=39	=39	=39	=39	=39	=39	=39	=39	=39
*>C1	*>C1	*>C1	*>C1	*>C1	*>C1	*>C1	*>C1	*>C1	*>C1
!	!LO:TX:b:i:t=D.S.	!	!LO:TX:a:i:t=D.S.	!	!	!	!	!	!
4GG 4GGG\	4Bn< 4G< 4D</	.	4g/	-ment.	.	.	.	.	.
!LO:TX:t=[segno]:problem=znak segno na kresce taktowej	!	!	!	!	!	!	!	!	!
=40	=40	=40	=40	=40	=40	=40	=40	=40	=40
*>C2	*>C2	*>C2	*>C2	*>C2	*>C2	*>C2	*>C2	*>C2	*>C2
*k[b-e-a-]	*k[b-e-a-]	*	*k[b-e-a-]	*	*	*	*	*	*
!	!	!LO:DY:rj	!	!	!	!	!	!	!
1GG 1GGG	1c 1G< 1E-<	p	8g/	ment,	.	.	.	.	.
.	.	.	8g/	die	.	.	.	.	.
.	.	.	4.a-^/	letz-	.	.	.	.	.
.	.	.	8g/	-ten	.	.	.	.	.
.	.	.	8f/	Zehn	.	.	.	.	.
.	.	.	8e-/	vom	.	.	.	.	.
=41	=41	=41	=41	=41	=41	=41	=41	=41	=41
!	!LO:TX:b:i:t=poco a poco ritard.	!	!LO:TX:a:i:t=poco a poco ritard.	!	!	!	!	!	!
8AA-\L	2Bn< 2G< 2E-</	.	4.e-^/	vier-	.	.	.	.	.
8GG\	.	.	.	.	.	.	.	.	.
8FF#X\	.	.	.	.	.	.	.	.	.
8GG\J	.	.	8d/	-ten	.	.	.	.	.
8AA-\L	2B< 2G< 2E-</	.	4.e-^/	Re-	.	.	.	.	.
8GG\	.	.	.	.	.	.	.	.	.
8FF#\	.	.	.	.	.	.	.	.	.
8GG\J	.	.	8d/	-gi-	.	.	.	.	.
=42	=42	=42	=42	=42	=42	=42	=42	=42	=42
*^	*^	*	*	*	*	*	*	*	*
4C/	1CC	2.ryy	1c< 1G< 1E-<	.	4c/	-ment.	.	.	.	.	.
8C/L	.	.	.	.	4r	.	.	.	.	.	.
8C/J	.	.	.	.	.	.	.	.	.	.	.
4C/	.	.	.	.	2r	.	.	.	.	.	.
!	!	!LO:S:s=1:note:problem=note-level slur	!	!	!	!	!	!	!	!	!
!	!	!LO:S:s=2:note:problem=note-level slur	!	!	!	!	!	!	!	!	!
4C/	.	(<4f [4c (4A-^/	.	.	.	.	.	.	.	.	.
*	*	*v	*v	*	*	*	*	*	*	*	*
=43	=43	=43	=43	=43	=43	=43	=43	=43	=43	=43
!	!	!LO:S:s=1:note:problem=note-level slur	!	!	!	!	!	!	!	!
!	!	!LO:S:s=2:note:problem=note-level slur	!	!	!	!	!	!	!	!
4C/	1CC	2.e-) 2.c] 2.G/)	.	1r	.	.	.	.	.	.
8C/L	.	.	.	.	.	.	.	.	.	.
8C/J	.	.	.	.	.	.	.	.	.	.
4C/	.	.	.	.	.	.	.	.	.	.
!	!	!LO:S:s=1:note:problem=note-level slur	!	!	!	!	!	!	!	!
!	!	!LO:S:s=2:note:problem=note-level slur	!	!	!	!	!	!	!	!
4C/	.	(<4f [4c (4A-^/	.	.	.	.	.	.	.	.
=44	=44	=44	=44	=44	=44	=44	=44	=44	=44	=44
!	!	!LO:TX:b:i:t=smorz.	!	!	!	!	!	!	!	!
!	!	!LO:S:s=1:note:problem=note-level slur	!	!	!	!	!	!	!	!
!	!	!LO:S:s=2:note:problem=note-level slur	!	!	!	!	!	!	!	!
1C	4CC\	2e-) 2c] 2G/)	.	1r	.	.	.	.	.	.
.	4C\	.	.	.	.	.	.	.	.	.
.	4GG\	2e- 2c 2G/	.	.	.	.	.	.	.	.
.	4EE-\	.	.	.	.	.	.	.	.	.
*v	*v	*	*	*	*	*	*	*	*	*
=45	=45	=45	=45	=45	=45	=45	=45	=45	=45
2CC\	2c 2G< 2E-< 2C</	pp	1r	.	.	.	.	.	.
2r	2r	.	.	.	.	.	.	.	.
==	==	==	==	==	==	==	==	==	==
*-	*-	*-	*-	*-	*-	*-	*-	*-	*-
!!!system-decoration: (s1){(s2,s3)}
!!!RDF**kern: > = above
!!!RDF**kern: < = below
!!!ENC: Katarzyna Serwa
!!!END: 2022-02-15
!!!ENC: Berenika Jozajtis
!!!END: 2022-02-06
!!!YEC: Copyright 2022 Narodowy Instytut Fryderyka Chopina (https://polishscores.org)
!!!YEM: Licence CC BY 4.0 (https://creativecommons.org/licenses/by/4.0)
